Newaita-dark/apps/48/kbounce.svg

<svg height="48pt" viewBox="0 0 48 48" width="48pt" xmlns="http://www.w3.org/2000/svg" xmlns:xlink="http://www.w3.org/1999/xlink"><linearGradient id="a"><stop offset="0" stop-opacity=".313725"/><stop offset=".222222" stop-opacity=".27451"/><stop offset="1" stop-opacity="0"/></linearGradient><radialGradient id="b" cx="450.908936" cy="189.579361" gradientTransform="matrix(.00000036 -.102549 -.288309 -.00000013 78.984696 88.973262)" gradientUnits="userSpaceOnUse" r="21.166656" xlink:href="#a"/><radialGradient id="c" cx="450.908936" cy="189.579361" gradientTransform="matrix(-.00000036 .102549 .288309 .00000013 -31.685907 -4.375346)" gradientUnits="userSpaceOnUse" r="21.166656" xlink:href="#a"/><radialGradient id="d" cx="450.908936" cy="189.579361" gradientTransform="matrix(-.00000036 -.102549 .288309 -.00000013 -31.685907 88.973262)" gradientUnits="userSpaceOnUse" r="21.166656" xlink:href="#a"/><radialGradient id="e" cx="450.908936" cy="189.579361" gradientTransform="matrix(.00000036 .102549 -.288309 .00000013 78.984692 -4.375346)" gradientUnits="userSpaceOnUse" r="21.166656" xlink:href="#a"/><linearGradient id="f" gradientTransform="matrix(.0273881 0 0 .082039 16.656575 23.142854)" gradientUnits="userSpaceOnUse" x1="255.323059" x2="255.323044" y1="233.5" y2="254.666656"><stop offset="0" stop-opacity=".27451"/><stop offset="1" stop-opacity="0"/></linearGradient><linearGradient id="g" gradientUnits="userSpaceOnUse" x1="23.814786" x2="23.814786" y1="42.0509015" y2="4.34415649995"><stop offset="0" stop-color="#bdbdbd"/><stop offset="1" stop-color="#e0e0e0"/></linearGradient><linearGradient id="h" gradientTransform="matrix(.0811976 -.0468795 .0468795 .0811976 1.660191 32.475627)" gradientUnits="userSpaceOnUse" x1="254" x2="254" y1="233.5" y2="-168.666672"><stop offset="0" stop-color="#ff7043"/><stop offset="1" stop-color="#ff8a65"/></linearGradient><path d="m25.003906 42.300781h5.425782v-1.738281h-5.425782zm0 0" fill="url(#b)"/><path d="m22.292969 42.300781h-5.425781v1.734375h5.425781zm0 0" fill="url(#c)"/><path d="m22.292969 42.300781h-5.425781v-1.738281h5.425781zm0 0" fill="url(#d)"/><path d="m25.003906 42.300781h5.425782v1.734375h-5.425782zm0 0" fill="url(#e)"/><path d="m22.292969 41.863281h2.710937v2.171875h-2.710937zm0 0" fill="url(#f)"/><path d="m23.816406 4.34375c10.410156 0 18.851563 8.441406 18.851563 18.855469 0 10.410156-8.441407 18.851562-18.851563 18.851562-10.414062 0-18.855468-8.441406-18.855468-18.851562 0-10.414063 8.441406-18.855469 18.855468-18.855469zm0 0" fill="url(#g)"/><path d="m23.308594 22.339844c-6.066406 3.503906-11.027344 7.824218-14.492188 12.300781 5.667969 7.464844 16.078125 9.699219 24.414063 4.886719 8.335937-4.8125 11.605469-14.945313 7.976562-23.585938-5.609375.761719-11.835937 2.898438-17.898437 6.398438zm0 0" fill="url(#h)"/><path d="m23.816406 4.34375c-10.445312 0-18.855468 8.410156-18.855468 18.855469 0 .125.003906.253906.003906.378906.203125-10.265625 8.53125-18.472656 18.851562-18.472656 10.316406 0 18.644532 8.207031 18.847656 18.472656.003907-.125.003907-.253906.003907-.378906 0-10.445313-8.410157-18.855469-18.851563-18.855469zm0 0" fill="#fff" fill-opacity=".470588"/><path d="m23.816406 42.050781c-10.445312 0-18.855468-8.410156-18.855468-18.851562 0-.128907.003906-.253907.003906-.382813.203125 10.269532 8.53125 18.472656 18.851562 18.472656 10.316406 0 18.644532-8.203124 18.847656-18.472656.003907.128906.003907.253906.003907.382813 0 10.441406-8.410157 18.851562-18.851563 18.851562zm0 0" fill-opacity=".235294"/><path d="m40.859375 15.105469c-5.515625.804687-11.613281 2.921875-17.550781 6.351562-6.066406 3.5-11.027344 7.824219-14.492188 12.300781.109375.144532.222656.289063.335938.429688 3.445312-4.324219 8.285156-8.484375 14.15625-11.875 6.0625-3.5 12.289062-5.636719 17.898437-6.398438.492188 1.175782.859375 2.375 1.101563 3.589844-.304688-1.542968-.792969-3.015625-1.449219-4.398437zm1.460937 4.449219c.003907.03125.011719.0625.015626.09375-.003907-.03125-.011719-.0625-.015626-.09375zm0 0" fill-opacity=".235294"/><path d="m23.816406 4.203125c-10.523437 0-18.996094 8.472656-18.996094 18.996094 0 10.519531 8.472657 18.992187 18.996094 18.992187 10.519532 0 18.992188-8.472656 18.992188-18.992187 0-10.523438-8.472656-18.996094-18.992188-18.996094zm0 .28125c10.367188 0 18.710938 8.34375 18.710938 18.714844 0 10.367187-8.34375 18.710937-18.710938 18.710937-10.371094 0-18.714844-8.34375-18.714844-18.710937 0-10.371094 8.34375-18.714844 18.714844-18.714844zm0 0" fill="#212121"/><path d="m12.074219 12.351562c2.183593-2.183593 4.710937-3.195312 5.648437-2.257812.933594.933594-.074218 3.460938-2.257812 5.644531-2.183594 2.183594-4.710938 3.195313-5.648438 2.257813-.933594-.933594.078125-3.460938 2.257813-5.644532zm0 0" fill="#fff" fill-opacity=".470588"/><path d="m41.207031 15.941406c-5.609375.761719-11.835937 2.898438-17.898437 6.398438-6.066406 3.503906-11.027344 7.824218-14.492188 12.300781.109375.144531.222656.289063.335938.429687 3.445312-4.324218 8.285156-8.484374 14.15625-11.871093 6.0625-3.503907 12.289062-5.640625 17.898437-6.402344.933594 2.222656 1.410157 4.542969 1.460938 6.84375.058593-2.582031-.414063-5.203125-1.460938-7.699219zm0 0" fill="#fff" fill-opacity=".392157"/><path d="m41.203125 15.800781c-.003906 0-.007813 0-.015625 0-5.628906.765625-11.871094 2.910157-17.949219 6.417969-6.082031 3.511719-11.054687 7.84375-14.535156 12.335938-.039063.050781-.039063.121093 0 .171874 5.710937 7.515626 16.199219 9.769532 24.597656 4.921876 8.398438-4.847657 11.691407-15.058594 8.035157-23.761719-.019532-.054688-.074219-.089844-.132813-.085938zm-.085937.296875c3.53125 8.554688.285156 18.550782-7.957032 23.308594-8.242187 4.757812-18.519531 2.570312-24.164062-4.765625 3.449218-4.429687 8.371094-8.707031 14.382812-12.179687 6.011719-3.46875 12.175782-5.589844 17.738282-6.363282zm0 0" fill="#212121"/></svg>

<?xml version="1.0" encoding="UTF-8"?>
<svg xmlns="http://www.w3.org/2000/svg" xmlns:xlink="http://www.w3.org/1999/xlink" width="48pt" height="48pt" viewBox="0 0 48 48" version="1.1">
<defs>
<radialGradient id="radial0" gradientUnits="userSpaceOnUse" cx="450.908936" cy="189.579361" fx="450.908936" fy="189.579361" r="21.166656" gradientTransform="matrix(0.000000357049,-0.102549,-0.288309,-0.000000133269,78.984696,88.973262)">
<stop offset="0" style="stop-color:rgb(0%,0%,0%);stop-opacity:0.313725;"/>
<stop offset="0.222222" style="stop-color:rgb(0%,0%,0%);stop-opacity:0.27451;"/>
<stop offset="1" style="stop-color:rgb(0%,0%,0%);stop-opacity:0;"/>
</radialGradient>
<radialGradient id="radial1" gradientUnits="userSpaceOnUse" cx="450.908936" cy="189.579361" fx="450.908936" fy="189.579361" r="21.166656" gradientTransform="matrix(-0.000000357049,0.102549,0.288309,0.000000133269,-31.685907,-4.375346)">
<stop offset="0" style="stop-color:rgb(0%,0%,0%);stop-opacity:0.313725;"/>
<stop offset="0.222222" style="stop-color:rgb(0%,0%,0%);stop-opacity:0.27451;"/>
<stop offset="1" style="stop-color:rgb(0%,0%,0%);stop-opacity:0;"/>
</radialGradient>
<radialGradient id="radial2" gradientUnits="userSpaceOnUse" cx="450.908936" cy="189.579361" fx="450.908936" fy="189.579361" r="21.166656" gradientTransform="matrix(-0.000000357049,-0.102549,0.288309,-0.000000133269,-31.685907,88.973262)">
<stop offset="0" style="stop-color:rgb(0%,0%,0%);stop-opacity:0.313725;"/>
<stop offset="0.222222" style="stop-color:rgb(0%,0%,0%);stop-opacity:0.27451;"/>
<stop offset="1" style="stop-color:rgb(0%,0%,0%);stop-opacity:0;"/>
</radialGradient>
<radialGradient id="radial3" gradientUnits="userSpaceOnUse" cx="450.908936" cy="189.579361" fx="450.908936" fy="189.579361" r="21.166656" gradientTransform="matrix(0.000000357049,0.102549,-0.288309,0.000000133269,78.984692,-4.375346)">
<stop offset="0" style="stop-color:rgb(0%,0%,0%);stop-opacity:0.313725;"/>
<stop offset="0.222222" style="stop-color:rgb(0%,0%,0%);stop-opacity:0.27451;"/>
<stop offset="1" style="stop-color:rgb(0%,0%,0%);stop-opacity:0;"/>
</radialGradient>
<linearGradient id="linear0" gradientUnits="userSpaceOnUse" x1="255.323059" y1="233.5" x2="255.323044" y2="254.666656" gradientTransform="matrix(0.0273881,0,0,0.082039,16.656575,23.142854)">
<stop offset="0" style="stop-color:rgb(0%,0%,0%);stop-opacity:0.27451;"/>
<stop offset="1" style="stop-color:rgb(0%,0%,0%);stop-opacity:0;"/>
</linearGradient>
<linearGradient id="linear1" gradientUnits="userSpaceOnUse" x1="254" y1="233.5" x2="254" y2="-168.666672" gradientTransform="matrix(0.093759,0,0,0.093759,0,20.158175)">
<stop offset="0" style="stop-color:rgb(74.117647%,74.117647%,74.117647%);stop-opacity:1;"/>
<stop offset="1" style="stop-color:rgb(87.843137%,87.843137%,87.843137%);stop-opacity:1;"/>
</linearGradient>
<linearGradient id="linear2" gradientUnits="userSpaceOnUse" x1="254" y1="233.5" x2="254" y2="-168.666672" gradientTransform="matrix(0.0811976,-0.0468795,0.0468795,0.0811976,1.660191,32.475627)">
<stop offset="0" style="stop-color:rgb(100%,43.921569%,26.27451%);stop-opacity:1;"/>
<stop offset="1" style="stop-color:rgb(100%,54.117647%,39.607843%);stop-opacity:1;"/>
</linearGradient>
</defs>
<g id="surface1">
<path style=" stroke:none;fill-rule:nonzero;fill:url(#radial0);" d="M 25.003906 42.300781 L 30.429688 42.300781 L 30.429688 40.5625 L 25.003906 40.5625 Z M 25.003906 42.300781 "/>
<path style=" stroke:none;fill-rule:nonzero;fill:url(#radial1);" d="M 22.292969 42.300781 L 16.867188 42.300781 L 16.867188 44.035156 L 22.292969 44.035156 Z M 22.292969 42.300781 "/>
<path style=" stroke:none;fill-rule:nonzero;fill:url(#radial2);" d="M 22.292969 42.300781 L 16.867188 42.300781 L 16.867188 40.5625 L 22.292969 40.5625 Z M 22.292969 42.300781 "/>
<path style=" stroke:none;fill-rule:nonzero;fill:url(#radial3);" d="M 25.003906 42.300781 L 30.429688 42.300781 L 30.429688 44.035156 L 25.003906 44.035156 Z M 25.003906 42.300781 "/>
<path style=" stroke:none;fill-rule:nonzero;fill:url(#linear0);" d="M 22.292969 41.863281 L 25.003906 41.863281 L 25.003906 44.035156 L 22.292969 44.035156 Z M 22.292969 41.863281 "/>
<path style=" stroke:none;fill-rule:nonzero;fill:url(#linear1);" d="M 23.816406 4.34375 C 34.226562 4.34375 42.667969 12.785156 42.667969 23.199219 C 42.667969 33.609375 34.226562 42.050781 23.816406 42.050781 C 13.402344 42.050781 4.960938 33.609375 4.960938 23.199219 C 4.960938 12.785156 13.402344 4.34375 23.816406 4.34375 Z M 23.816406 4.34375 "/>
<path style=" stroke:none;fill-rule:nonzero;fill:url(#linear2);" d="M 23.308594 22.339844 C 17.242188 25.84375 12.28125 30.164062 8.816406 34.640625 C 14.484375 42.105469 24.894531 44.339844 33.230469 39.527344 C 41.566406 34.714844 44.835938 24.582031 41.207031 15.941406 C 35.597656 16.703125 29.371094 18.839844 23.308594 22.339844 Z M 23.308594 22.339844 "/>
<path style=" stroke:none;fill-rule:nonzero;fill:rgb(100%,100%,100%);fill-opacity:0.470588;" d="M 23.816406 4.34375 C 13.371094 4.34375 4.960938 12.753906 4.960938 23.199219 C 4.960938 23.324219 4.964844 23.453125 4.964844 23.578125 C 5.167969 13.3125 13.496094 5.105469 23.816406 5.105469 C 34.132812 5.105469 42.460938 13.3125 42.664062 23.578125 C 42.667969 23.453125 42.667969 23.324219 42.667969 23.199219 C 42.667969 12.753906 34.257812 4.34375 23.816406 4.34375 Z M 23.816406 4.34375 "/>
<path style=" stroke:none;fill-rule:nonzero;fill:rgb(0%,0%,0%);fill-opacity:0.235294;" d="M 23.816406 42.050781 C 13.371094 42.050781 4.960938 33.640625 4.960938 23.199219 C 4.960938 23.070312 4.964844 22.945312 4.964844 22.816406 C 5.167969 33.085938 13.496094 41.289062 23.816406 41.289062 C 34.132812 41.289062 42.460938 33.085938 42.664062 22.816406 C 42.667969 22.945312 42.667969 23.070312 42.667969 23.199219 C 42.667969 33.640625 34.257812 42.050781 23.816406 42.050781 Z M 23.816406 42.050781 "/>
<path style=" stroke:none;fill-rule:nonzero;fill:rgb(0%,0%,0%);fill-opacity:0.235294;" d="M 40.859375 15.105469 C 35.34375 15.910156 29.246094 18.027344 23.308594 21.457031 C 17.242188 24.957031 12.28125 29.28125 8.816406 33.757812 C 8.925781 33.902344 9.039062 34.046875 9.152344 34.1875 C 12.597656 29.863281 17.4375 25.703125 23.308594 22.3125 C 29.371094 18.8125 35.597656 16.675781 41.207031 15.914062 C 41.699219 17.089844 42.066406 18.289062 42.308594 19.503906 C 42.003906 17.960938 41.515625 16.488281 40.859375 15.105469 Z M 42.320312 19.554688 C 42.324219 19.585938 42.332031 19.617188 42.335938 19.648438 C 42.332031 19.617188 42.324219 19.585938 42.320312 19.554688 Z M 42.320312 19.554688 "/>
<path style=" stroke:none;fill-rule:nonzero;fill:rgb(12.941177%,12.941177%,12.941177%);fill-opacity:1;" d="M 23.816406 4.203125 C 13.292969 4.203125 4.820312 12.675781 4.820312 23.199219 C 4.820312 33.71875 13.292969 42.191406 23.816406 42.191406 C 34.335938 42.191406 42.808594 33.71875 42.808594 23.199219 C 42.808594 12.675781 34.335938 4.203125 23.816406 4.203125 Z M 23.816406 4.484375 C 34.183594 4.484375 42.527344 12.828125 42.527344 23.199219 C 42.527344 33.566406 34.183594 41.910156 23.816406 41.910156 C 13.445312 41.910156 5.101562 33.566406 5.101562 23.199219 C 5.101562 12.828125 13.445312 4.484375 23.816406 4.484375 Z M 23.816406 4.484375 "/>
<path style=" stroke:none;fill-rule:nonzero;fill:rgb(100%,100%,100%);fill-opacity:0.470588;" d="M 12.074219 12.351562 C 14.257812 10.167969 16.785156 9.15625 17.722656 10.09375 C 18.65625 11.027344 17.648438 13.554688 15.464844 15.738281 C 13.28125 17.921875 10.753906 18.933594 9.816406 17.996094 C 8.882812 17.0625 9.894531 14.535156 12.074219 12.351562 Z M 12.074219 12.351562 "/>
<path style=" stroke:none;fill-rule:nonzero;fill:rgb(100%,100%,100%);fill-opacity:0.392157;" d="M 41.207031 15.941406 C 35.597656 16.703125 29.371094 18.839844 23.308594 22.339844 C 17.242188 25.84375 12.28125 30.164062 8.816406 34.640625 C 8.925781 34.785156 9.039062 34.929688 9.152344 35.070312 C 12.597656 30.746094 17.4375 26.585938 23.308594 23.199219 C 29.371094 19.695312 35.597656 17.558594 41.207031 16.796875 C 42.140625 19.019531 42.617188 21.339844 42.667969 23.640625 C 42.726562 21.058594 42.253906 18.4375 41.207031 15.941406 Z M 41.207031 15.941406 "/>
<path style=" stroke:none;fill-rule:nonzero;fill:rgb(12.941177%,12.941177%,12.941177%);fill-opacity:1;" d="M 41.203125 15.800781 C 41.199219 15.800781 41.195312 15.800781 41.1875 15.800781 C 35.558594 16.566406 29.316406 18.710938 23.238281 22.21875 C 17.15625 25.730469 12.183594 30.0625 8.703125 34.554688 C 8.664062 34.605469 8.664062 34.675781 8.703125 34.726562 C 14.414062 42.242188 24.902344 44.496094 33.300781 39.648438 C 41.699219 34.800781 44.992188 24.589844 41.335938 15.886719 C 41.316406 15.832031 41.261719 15.796875 41.203125 15.800781 Z M 41.117188 16.097656 C 44.648438 24.652344 41.402344 34.648438 33.160156 39.40625 C 24.917969 44.164062 14.640625 41.976562 8.996094 34.640625 C 12.445312 30.210938 17.367188 25.933594 23.378906 22.460938 C 29.390625 18.992188 35.554688 16.871094 41.117188 16.097656 Z M 41.117188 16.097656 "/>
</g>
</svg>
